libs/ui/packages/crypto-icons/src/svg/ZEL.svg

<svg width="24" height="24" viewBox="0 0 24 24" fill="none">
<path fill-rule="evenodd" clip-rule="evenodd" d="M3.75 12.0862L7.12125 10.1827L10.4918 12.0862V15.7215L7.12125 17.625L3.75 15.7215V12.0862ZM13.5075 12.0862L16.8787 10.1827L20.25 12.0862V15.7215L16.8787 17.625L13.5082 15.7215V12.0862H13.5075ZM13.1535 15.2438L11.9708 15.894L10.8465 15.2767V11.7975L7.7715 10.0605V8.7975L11.9708 6.375L16.1693 8.7975V10.095L13.1535 11.7975V15.2445V15.2438Z" fill="#183C87"/>
</svg>

<svg width="24" height="24" viewBox="0 0 24 24" fill="none"><path fill="#183c87" fill-rule="evenodd" d="m3.75 12.086 3.371-1.903 3.37 1.903v3.636l-3.37 1.903-3.371-1.903zm9.758 0 3.37-1.903 3.372 1.903v3.636l-3.371 1.903-3.37-1.903zm-.354 3.158-1.183.65-1.124-.617v-3.48L7.772 10.06V8.798l4.199-2.422 4.198 2.422v1.298l-3.016 1.702z" clip-rule="evenodd"/></svg>
